src/assets/icons/pen-to-square.svg

<svg width="14" height="14" viewBox="0 0 14 14" fill="none" xmlns="http://www.w3.org/2000/svg">
<g id="pen-to-square">
<g clip-path="url(#clip0_295_4719)">
<path id="Vector" fill-rule="evenodd" clip-rule="evenodd" d="M11.7256 1.34436C11.8091 1.26073 11.961 1.19576 12.1567 1.20015C12.3524 1.20455 12.519 1.27754 12.6147 1.3734C12.7177 1.47653 12.7919 1.64541 12.7994 1.8332C12.8069 2.02015 12.7471 2.16361 12.6656 2.24544L12.6655 2.2456L6.67378 8.24507L5.65551 8.33765L5.73565 7.34205L11.7255 1.34444L11.7256 1.34436ZM13.4639 0.525615C13.1142 0.175266 12.6343 0.0106227 12.1836 0.000498097C11.7328 -0.0096292 11.2384 0.133963 10.8764 0.496488L10.8764 0.49657L4.73077 6.65013C4.63017 6.75086 4.56867 6.88407 4.55725 7.02597L4.40226 8.95155C4.38806 9.12796 4.45247 9.30163 4.57826 9.42612C4.70405 9.55062 4.87838 9.61322 5.05463 9.5972L6.99898 9.42041C7.13889 9.40769 7.2699 9.34627 7.36917 9.24687L13.5148 3.09323L13.5152 3.09291C13.8791 2.728 14.0164 2.23475 13.9984 1.78518C13.9804 1.33633 13.8064 0.868698 13.4639 0.525615ZM2.04999 1.20044C0.921159 1.20044 6.10352e-05 2.12154 6.10352e-05 3.25037V11.9501C6.10352e-05 13.0789 0.921159 14 2.04999 14H10.7497C11.8785 14 12.7996 13.0789 12.7996 11.9501V7.60022C12.7996 7.26886 12.531 7.00024 12.1996 7.00024C11.8683 7.00024 11.5997 7.26886 11.5997 7.60022V11.9501C11.5997 12.4162 11.2158 12.8 10.7497 12.8H2.04999C1.58388 12.8 1.20002 12.4162 1.20002 11.9501V3.25037C1.20002 2.78426 1.58388 2.4004 2.04999 2.4004H6.39984C6.7312 2.4004 6.99982 2.13178 6.99982 1.80042C6.99982 1.46906 6.7312 1.20044 6.39984 1.20044H2.04999Z" fill="black"/>
</g>
</g>
<defs>
<clipPath id="clip0_295_4719">
<rect width="14" height="14" fill="white"/>
</clipPath>
</defs>
</svg>

<svg xmlns="http://www.w3.org/2000/svg" fill="none" viewBox="0 0 14 14"><g clip-path="url(#a)"><path fill="#000" fill-rule="evenodd" d="M11.726 1.344c.083-.083.235-.148.43-.144a.68.68 0 0 1 .459.173.7.7 0 0 1 .184.46c.008.187-.052.33-.133.412l-5.992 6-1.018.093.08-.996zm1.738-.818c-.35-.35-.83-.515-1.28-.526-.451-.01-.946.134-1.308.496L4.731 6.65a.6.6 0 0 0-.174.376l-.155 1.926a.6.6 0 0 0 .653.645l1.944-.177a.6.6 0 0 0 .37-.173l6.146-6.154c.364-.365.501-.858.483-1.308a1.9 1.9 0 0 0-.534-1.26M2.05 1.2C.921 1.2 0 2.122 0 3.25v8.7C0 13.08.921 14 2.05 14h8.7c1.129 0 2.05-.921 2.05-2.05V7.6a.6.6 0 1 0-1.2 0v4.35c0 .466-.384.85-.85.85h-8.7a.854.854 0 0 1-.85-.85v-8.7c0-.466.384-.85.85-.85H6.4a.6.6 0 1 0 0-1.2z" clip-rule="evenodd"/></g><defs><clipPath id="a"><path fill="#fff" d="M0 0h14v14H0z"/></clipPath></defs></svg>
